lib/assets/icons/binoculars.svg

<svg width="32" height="33" viewBox="0 0 32 33" fill="none" xmlns="http://www.w3.org/2000/svg">
<path d="M13.3333 13.8334H18.6666" stroke="white" stroke-width="2" stroke-linecap="round" stroke-linejoin="round"/>
<path d="M25.3333 9.83333V5.83333C25.3333 5.47971 25.1929 5.14057 24.9428 4.89052C24.6928 4.64048 24.3536 4.5 24 4.5H21.3333C20.9797 4.5 20.6406 4.64048 20.3905 4.89052C20.1405 5.14057 20 5.47971 20 5.83333V9.83333" stroke="white" stroke-width="2" stroke-linecap="round" stroke-linejoin="round"/>
<path d="M26.6667 28.5C27.374 28.5 28.0523 28.2191 28.5524 27.719C29.0525 27.2189 29.3334 26.5406 29.3334 25.8334V20.6987C29.3334 18.8454 26.6667 16.7494 26.6667 14.26V11.1667C26.6667 10.8131 26.5263 10.4739 26.2762 10.2239C26.0262 9.97385 25.687 9.83337 25.3334 9.83337H20.0001C19.6465 9.83337 19.3073 9.97385 19.0573 10.2239C18.8072 10.4739 18.6667 10.8131 18.6667 11.1667V25.8334C18.6667 26.5406 18.9477 27.2189 19.4478 27.719C19.9479 28.2191 20.6262 28.5 21.3334 28.5H26.6667Z" stroke="white" stroke-width="2" stroke-linecap="round" stroke-linejoin="round"/>
<path d="M29.3334 21.8334H2.66675" stroke="white" stroke-width="2" stroke-linecap="round" stroke-linejoin="round"/>
<path d="M5.33341 28.5C4.62617 28.5 3.94789 28.2191 3.4478 27.719C2.9477 27.2189 2.66675 26.5406 2.66675 25.8334V20.6987C2.66675 18.8454 5.33341 16.7494 5.33341 14.26V11.1667C5.33341 10.8131 5.47389 10.4739 5.72394 10.2239C5.97399 9.97385 6.31313 9.83337 6.66675 9.83337H12.0001C12.3537 9.83337 12.6928 9.97385 12.9429 10.2239C13.1929 10.4739 13.3334 10.8131 13.3334 11.1667V25.8334C13.3334 26.5406 13.0525 27.2189 12.5524 27.719C12.0523 28.2191 11.374 28.5 10.6667 28.5H5.33341Z" stroke="white" stroke-width="2" stroke-linecap="round" stroke-linejoin="round"/>
<path d="M12.0001 9.83333V5.83333C12.0001 5.47971 11.8596 5.14057 11.6096 4.89052C11.3595 4.64048 11.0204 4.5 10.6667 4.5H8.00008C7.64646 4.5 7.30732 4.64048 7.05727 4.89052C6.80722 5.14057 6.66675 5.47971 6.66675 5.83333V9.83333" stroke="white" stroke-width="2" stroke-linecap="round" stroke-linejoin="round"/>
</svg>

<svg width="32" height="33" fill="none" xmlns="http://www.w3.org/2000/svg"><path d="M13.333 13.833h5.334M25.333 9.833v-4A1.333 1.333 0 0024 4.5h-2.667A1.333 1.333 0 0020 5.833v4M26.667 28.5a2.667 2.667 0 002.666-2.667V20.7c0-1.854-2.666-3.95-2.666-6.439v-3.093a1.333 1.333 0 00-1.334-1.334H20a1.333 1.333 0 00-1.333 1.334v14.666a2.667 2.667 0 002.666 2.667h5.334zM29.333 21.833H2.667M5.333 28.5a2.667 2.667 0 01-2.666-2.667V20.7c0-1.854 2.666-3.95 2.666-6.439v-3.093a1.333 1.333 0 011.334-1.334H12a1.333 1.333 0 011.333 1.334v14.666a2.667 2.667 0 01-2.666 2.667H5.333zM12 9.833v-4A1.334 1.334 0 0010.667 4.5H8a1.333 1.333 0 00-1.333 1.333v4" stroke="#fff" stroke-width="2" stroke-linecap="round" stroke-linejoin="round"/></svg>
